svg/color/bao.svg

<svg viewBox="0 0 156 154" fill="none" xmlns="http://www.w3.org/2000/svg">
<path fill-rule="evenodd" clip-rule="evenodd" d="M121.31 27.8206C144.11 43.0706 157.36 66.2006 155.89 95.8206C155.26 108.391 151.18 120.121 143.2 129.681C125.54 150.821 94.5801 155.731 69.7301 152.481C44.8801 149.231 16.2801 136.481 4.82009 111.581C-0.359905 100.291 -1.17991 87.9206 1.52009 75.6306C7.92009 46.6306 26.8201 27.7106 52.8701 18.8606C54.4801 9.38064 62.9001 2.74064 72.0001 3.92064C73.4592 4.1148 74.8854 4.50499 76.2401 5.08064C78.0329 3.23093 80.2302 1.82215 82.6594 0.964994C85.0886 0.107841 87.6834 -0.174336 90.2401 0.140636C92.7861 0.489956 95.2155 1.42843 97.3351 2.88144C99.4547 4.33446 101.206 6.26194 102.45 8.51064C103.91 8.31066 105.39 8.31066 106.85 8.51064C115.89 9.67064 122.25 18.2506 121.31 27.8206Z" fill="#59251B"/>
<path fill-rule="evenodd" clip-rule="evenodd" d="M116.06 30.2902C114.23 28.6702 109.3 27.1802 106.23 27.2902C109.607 26.1366 113.263 26.0876 116.67 27.1502C117.23 20.3102 112.67 14.2302 106.16 13.3802C103.956 13.093 101.715 13.4399 99.7001 14.3802C97.4501 15.3002 93.7001 19.1502 92.2701 22.0302C93.1541 17.8848 95.3322 14.1274 98.4901 11.3002C97.5997 9.62624 96.3253 8.18709 94.7713 7.1007C93.2174 6.01432 91.4281 5.31163 89.5501 5.05022C87.0986 4.77069 84.6195 5.23191 82.4326 6.37441C80.2456 7.51691 78.451 9.28831 77.2801 11.4602C76.0001 13.6302 75.1901 19.0002 75.6801 22.2202C73.9922 18.2884 73.5931 13.9229 74.5401 9.75022C73.5131 9.29246 72.4251 8.98594 71.3101 8.84022C64.5801 8.00022 58.3601 13.0002 57.4001 20.1602C57.2891 20.9685 57.2523 21.7852 57.2901 22.6002C57.5301 25.1202 60.0501 29.8302 62.2901 31.9802C58.7668 30.1246 55.9546 27.1578 54.2901 23.5402C29.6301 31.8902 12.0201 49.5402 6.03012 76.6802C-11.8699 157.68 147.03 178.44 151.16 95.6802C152.65 66.8402 139.27 44.6602 116.06 30.2902Z" fill="#FFFCF5"/>
<path fill-rule="evenodd" clip-rule="evenodd" d="M92.27 22.0407C92.46 16.8807 94.03 12.4307 97.07 9.2207C97.6099 9.86622 98.0854 10.5628 98.49 11.3007C95.3375 14.12 93.1599 17.8661 92.27 22.0007V22.0407Z" fill="#F1E3D6"/>
<path fill-rule="evenodd" clip-rule="evenodd" d="M62.3102 32.0005C58.7868 30.145 55.9746 27.1781 54.3102 23.5605C53.4202 23.8605 52.5302 24.1805 51.6602 24.5105C52.8561 26.3976 54.4123 28.0303 56.2397 29.3155C58.0671 30.6007 60.1299 31.5131 62.3102 32.0005Z" fill="#F1E3D6"/>
<path fill-rule="evenodd" clip-rule="evenodd" d="M75.5702 21.1903C75.5702 21.5503 75.6302 21.9003 75.6802 22.1903L75.5702 21.1903ZM75.6802 22.1903C73.064 18.3487 71.9534 13.6784 72.5602 9.07031C73.2458 9.23699 73.9151 9.46456 74.5602 9.75031C73.6069 13.9209 73.999 18.2863 75.6802 22.2203V22.1903Z" fill="#F1E3D6"/>
<path fill-rule="evenodd" clip-rule="evenodd" d="M106.23 27.3099C109.607 26.1563 113.263 26.1072 116.67 27.1699C116.752 26.2002 116.729 25.2245 116.6 24.2599C112.911 24.1817 109.289 25.2471 106.23 27.3099Z" fill="#F1E3D6"/>
<path fill-rule="evenodd" clip-rule="evenodd" d="M10.3501 112.001C36.8901 161.741 147.78 164.691 151.21 95.7109C151.896 84.7756 150.066 73.8284 145.86 63.7109C147.51 118.711 120.43 150.131 61.4501 138.631C43.4901 135.091 25.0501 125.291 10.3501 112.001Z" fill="#F1E3D6"/>
<path fill-rule="evenodd" clip-rule="evenodd" d="M93.2201 76.9302C91.9752 77.1135 90.7794 77.5437 89.7029 78.1954C88.6265 78.8471 87.691 79.7072 86.9514 80.7253C86.2118 81.7434 85.683 82.8989 85.396 84.1242C85.109 85.3494 85.0696 86.6196 85.2801 87.8602C85.6035 90.3977 86.9052 92.7084 88.9077 94.3C90.9102 95.8916 93.4552 96.638 96.0001 96.3802C97.2504 96.2041 98.4527 95.7792 99.5361 95.1306C100.619 94.482 101.562 93.6229 102.307 92.604C103.053 91.5852 103.587 90.4272 103.878 89.1985C104.169 87.9697 104.21 86.6952 104 85.4502C103.679 82.9002 102.37 80.5782 100.353 78.9845C98.337 77.3909 95.7753 76.6531 93.2201 76.9302Z" fill="#59251B"/>
<path fill-rule="evenodd" clip-rule="evenodd" d="M93.0001 78.3901C91.9499 78.5388 91.0018 79.0985 90.3642 79.9461C89.7266 80.7937 89.4518 81.8599 89.6001 82.9101C89.7208 83.9586 90.251 84.917 91.0751 85.5763C91.8993 86.2357 92.9507 86.5426 94.0001 86.4301C94.5211 86.3565 95.0224 86.1809 95.4754 85.9133C95.9284 85.6457 96.3242 85.2913 96.64 84.8705C96.9558 84.4497 97.1855 83.9707 97.316 83.461C97.4464 82.9513 97.475 82.4209 97.4001 81.9001C97.2771 80.8534 96.7458 79.8975 95.9219 79.2403C95.098 78.583 94.048 78.2775 93.0001 78.3901Z" fill="white"/>
<path fill-rule="evenodd" clip-rule="evenodd" d="M62.2701 93.2314C62.6925 93.1937 63.1176 93.1937 63.5401 93.2314C63.8801 93.2914 64.0901 93.4614 64.1101 93.6414C64.1301 93.8214 63.9501 94.0014 63.6501 94.1814C63.2795 94.4117 62.8632 94.5585 62.4301 94.6114C61.9706 94.5659 61.5233 94.4372 61.1101 94.2314C60.7601 94.0614 60.5301 93.9014 60.5101 93.7114C60.4901 93.5214 60.6701 93.3514 61.0001 93.2814C61.4216 93.2336 61.8461 93.2169 62.2701 93.2314Z" fill="#59251B"/>
<path fill-rule="evenodd" clip-rule="evenodd" d="M38.0001 73.3716C43.0001 72.7316 47.4001 76.5016 47.8401 81.7916C48.2801 87.0816 44.6201 91.9016 39.6301 92.5416C38.424 92.6726 37.2038 92.5553 36.0447 92.197C34.8857 91.8387 33.8122 91.247 32.8904 90.4582C31.9686 89.6694 31.218 88.7003 30.6848 87.6106C30.1516 86.5208 29.8471 85.3334 29.7901 84.1216C29.3501 78.8216 33.0001 74.0016 38.0001 73.3716Z" fill="#59251B"/>
<path fill-rule="evenodd" clip-rule="evenodd" d="M40.5901 75.1899C41.6134 75.0471 42.6516 75.315 43.4779 75.9352C44.3042 76.5554 44.8515 77.4775 45.0001 78.4999C45.063 79.0044 45.0256 79.5163 44.8902 80.0063C44.7547 80.4962 44.5237 80.9546 44.2106 81.3551C43.8975 81.7556 43.5083 82.0902 43.0655 82.3399C42.6226 82.5896 42.1349 82.7493 41.6301 82.8099C40.61 82.9471 39.577 82.6765 38.7551 82.0568C37.9333 81.4371 37.3889 80.5184 37.2401 79.4999C37.1757 78.9968 37.2114 78.4858 37.3451 77.9965C37.4788 77.5072 37.7079 77.0491 38.0192 76.6486C38.3305 76.2481 38.7179 75.913 39.1591 75.6627C39.6003 75.4124 40.0866 75.2517 40.5901 75.1899Z" fill="white"/>
<path fill-rule="evenodd" clip-rule="evenodd" d="M45.23 99.291C48.96 105.211 55.8 103.751 62.89 100.841C71.21 105.001 79.89 106.951 84.58 102.491C83.5596 104.087 82.0516 105.311 80.28 105.981V106.121C80.4 114.221 79.56 120.241 77.5 124.741C75.44 129.241 72 131.901 67 131.861C62.52 131.161 59.2 128.041 56.71 123.151C54.22 118.261 52.71 112.391 51.63 104.821V104.681C50.1493 104.518 48.7505 103.918 47.6111 102.958C46.4717 101.999 45.6429 100.722 45.23 99.291Z" fill="#59251B"/>
<path fill-rule="evenodd" clip-rule="evenodd" d="M52.79 104.851C53.88 111.991 55.45 118.101 57.79 122.621C60.13 127.141 63.12 130.041 67.14 130.691C71.52 130.691 74.55 128.431 76.46 124.261C78.37 120.091 79.2 113.961 79.14 106.361C76.7547 106.668 74.334 106.549 71.99 106.011C68.8318 105.325 65.7349 104.382 62.73 103.191C60.8933 103.75 59.0228 104.191 57.13 104.511C55.6983 104.769 54.2444 104.883 52.79 104.851Z" fill="#D14641"/>
<path fill-rule="evenodd" clip-rule="evenodd" d="M78.5601 116.16C75.0239 114.957 71.2458 114.644 67.5601 115.25C63.5281 115.787 59.7238 117.431 56.5701 120C56.9401 120.91 57.3201 121.78 57.7401 122.59C60.0401 127.12 63.0701 130.01 67.0901 130.66C71.4701 130.66 74.5001 128.4 76.4101 124.23C77.51 121.657 78.234 118.939 78.5601 116.16Z" fill="#FF8884"/>
<path fill-rule="evenodd" clip-rule="evenodd" d="M67.3801 54.3213C75.8501 51.2313 77.3801 38.7113 74.4601 33.1113C73.7901 42.8913 71.3101 49.7613 67.3801 54.3213Z" fill="#59251B"/>
<path fill-rule="evenodd" clip-rule="evenodd" d="M81 37.0508C81.82 46.3608 85.08 49.3208 89.62 48.9008C82.81 41.7708 83 40.3008 81 37.0508Z" fill="#59251B"/>
<path fill-rule="evenodd" clip-rule="evenodd" d="M72 35.9004C71.9 41.5504 66.42 47.3604 62.78 46.3404C66.19 44.6404 69.22 40.2404 72 35.9004Z" fill="#59251B"/>
</svg>

<svg xmlns="http://www.w3.org/2000/svg" fill="none" viewBox="0 0 156 154"><path fill="#59251B" fill-rule="evenodd" d="M121.31 27.82c22.8 15.25 36.05 38.38 34.58 68-.63 12.571-4.71 24.301-12.69 33.861-17.66 21.14-48.62 26.05-73.47 22.8s-53.45-16-64.91-40.9c-5.18-11.29-6-23.66-3.3-35.95 6.4-29 25.3-47.92 51.35-56.77C54.48 9.38 62.9 2.74 72 3.92a16.4 16.4 0 0 1 4.24 1.16 16.66 16.66 0 0 1 14-4.94 16.52 16.52 0 0 1 12.21 8.37c1.46-.2 2.94-.2 4.4 0 9.04 1.16 15.4 9.74 14.46 19.31" clip-rule="evenodd"/><path fill="#FFFCF5" fill-rule="evenodd" d="M116.06 30.29c-1.83-1.62-6.76-3.11-9.83-3a16.8 16.8 0 0 1 10.44-.14c.56-6.84-4-12.92-10.51-13.77a11.7 11.7 0 0 0-6.46 1c-2.25.92-6 4.77-7.43 7.65a20 20 0 0 1 6.22-10.73 12 12 0 0 0-8.94-6.25 12.35 12.35 0 0 0-12.27 6.41C76 13.63 75.19 19 75.68 22.22a20.25 20.25 0 0 1-1.14-12.47 11.6 11.6 0 0 0-3.23-.91C64.58 8 58.36 13 57.4 20.16a13.4 13.4 0 0 0-.11 2.44c.24 2.52 2.76 7.23 5 9.38a18.08 18.08 0 0 1-8-8.44c-24.66 8.35-42.27 26-48.26 53.14-17.9 81 141 101.76 145.13 19 1.49-28.84-11.89-51.02-35.1-65.39" clip-rule="evenodd"/><path fill="#F1E3D6" fill-rule="evenodd" d="M92.27 22.04c.19-5.16 1.76-9.61 4.8-12.82.54.646 1.015 1.343 1.42 2.08A20 20 0 0 0 92.27 22zM62.31 32a18.08 18.08 0 0 1-8-8.44c-.89.3-1.78.62-2.65.95A17 17 0 0 0 62.31 32m13.26-10.81c0 .36.06.71.11 1zm.11 1a18.92 18.92 0 0 1-3.12-13.12 12 12 0 0 1 2 .68 20.25 20.25 0 0 0 1.12 12.47zm30.55 5.12a16.8 16.8 0 0 1 10.44-.14 13.4 13.4 0 0 0-.07-2.91 17.87 17.87 0 0 0-10.37 3.05m-95.88 84.691c26.54 49.74 137.43 52.69 140.86-16.29a71.7 71.7 0 0 0-5.35-32c1.65 55-25.43 86.42-84.41 74.92-17.96-3.54-36.4-13.34-51.1-26.63" clip-rule="evenodd"/><path fill="#59251B" fill-rule="evenodd" d="M93.22 76.93a9.45 9.45 0 0 0-7.94 10.93A9.81 9.81 0 0 0 96 96.38a9.45 9.45 0 0 0 8-10.93 9.8 9.8 0 0 0-10.78-8.52" clip-rule="evenodd"/><path fill="#fff" fill-rule="evenodd" d="M93 78.39a4 4 0 0 0-3.4 4.52 4 4 0 0 0 4.4 3.52 4 4 0 0 0 3.4-4.53 4 4 0 0 0-4.4-3.51" clip-rule="evenodd"/><path fill="#59251B" fill-rule="evenodd" d="M62.27 93.231a7 7 0 0 1 1.27 0c.34.06.55.23.57.41s-.16.36-.46.54a3 3 0 0 1-1.22.43 3.8 3.8 0 0 1-1.32-.38c-.35-.17-.58-.33-.6-.52s.16-.36.49-.43a9 9 0 0 1 1.27-.05M38 73.372c5-.64 9.4 3.13 9.84 8.42s-3.22 10.11-8.21 10.75a8.89 8.89 0 0 1-9.84-8.42c-.44-5.3 3.21-10.12 8.21-10.75" clip-rule="evenodd"/><path fill="#fff" fill-rule="evenodd" d="M40.59 75.19A3.91 3.91 0 0 1 45 78.5a3.86 3.86 0 0 1-3.37 4.31 3.91 3.91 0 0 1-4.39-3.31 3.85 3.85 0 0 1 3.35-4.31" clip-rule="evenodd"/><path fill="#59251B" fill-rule="evenodd" d="M45.23 99.291c3.73 5.92 10.57 4.46 17.66 1.55 8.32 4.16 17 6.11 21.69 1.65a8.8 8.8 0 0 1-4.3 3.49v.14c.12 8.1-.72 14.12-2.78 18.62s-5.5 7.16-10.5 7.12c-4.48-.7-7.8-3.82-10.29-8.71s-4-10.76-5.08-18.33v-.14a7.52 7.52 0 0 1-6.4-5.39" clip-rule="evenodd"/><path fill="#D14641" fill-rule="evenodd" d="M52.79 104.851c1.09 7.14 2.66 13.25 5 17.77s5.33 7.42 9.35 8.07c4.38 0 7.41-2.26 9.32-6.43s2.74-10.3 2.68-17.9a20.4 20.4 0 0 1-7.15-.35 59 59 0 0 1-9.26-2.82c-1.837.559-3.707 1-5.6 1.32a22 22 0 0 1-4.34.34" clip-rule="evenodd"/><path fill="#FF8884" fill-rule="evenodd" d="M78.56 116.16a22.7 22.7 0 0 0-11-.91A22 22 0 0 0 56.57 120c.37.91.75 1.78 1.17 2.59 2.3 4.53 5.33 7.42 9.35 8.07 4.38 0 7.41-2.26 9.32-6.43a29.2 29.2 0 0 0 2.15-8.07" clip-rule="evenodd"/><path fill="#59251B" fill-rule="evenodd" d="M67.38 54.321c8.47-3.09 10-15.61 7.08-21.21-.67 9.78-3.15 16.65-7.08 21.21M81 37.05c.82 9.31 4.08 12.27 8.62 11.85C82.81 41.77 83 40.3 81 37.05m-9-1.15c-.1 5.65-5.58 11.46-9.22 10.44 3.41-1.7 6.44-6.1 9.22-10.44" clip-rule="evenodd"/></svg>
